lib/svgs/time-view.svg

<?xml version="1.0" encoding="UTF-8"?>
<svg width="16px" height="17px" viewBox="0 0 16 17" version="1.1" xmlns="http://www.w3.org/2000/svg" xmlns:xlink="http://www.w3.org/1999/xlink">
    <!-- Generator: sketchtool 51.3 (57544) - http://www.bohemiancoding.com/sketch -->
    <title>app/time-view</title>
    <desc>Created with sketchtool.</desc>
    <defs></defs>
    <g id="Icons" stroke="none" stroke-width="1" fill="none" fill-rule="evenodd">
        <g id="Web" transform="translate(-241.000000, -632.000000)" fill="#000000" fill-rule="nonzero">
            <g id="app/time-view" transform="translate(241.000000, 632.000000)">
                <path d="M5.2,8.75 C5.2,9.05823578 5.44170292,9.3 5.74490303,9.3 L14.255097,9.3 C14.5518911,9.3 14.8,9.05176914 14.8,8.75 C14.8,8.44176422 14.5582971,8.2 14.255097,8.2 L5.74490303,8.2 C5.44810886,8.2 5.2,8.44823086 5.2,8.75 Z M4,8.75 C4,7.78350169 4.78735352,7 5.74490303,7 L14.255097,7 C15.2187803,7 16,7.77676344 16,8.75 C16,9.71649831 15.2126465,10.5 14.255097,10.5 L5.74490303,10.5 C4.7812197,10.5 4,9.72323656 4,8.75 Z M1.2,3.75 C1.2,4.05823578 1.44170292,4.3 1.74490303,4.3 L10.255097,4.3 C10.5518911,4.3 10.8,4.05176914 10.8,3.75 C10.8,3.44176422 10.5582971,3.2 10.255097,3.2 L1.74490303,3.2 C1.44810886,3.2 1.2,3.44823086 1.2,3.75 Z M0,3.75 C0,2.78350169 0.787353516,2 1.74490303,2 L10.255097,2 C11.2187803,2 12,2.77676344 12,3.75 C12,4.71649831 11.2126465,5.5 10.255097,5.5 L1.74490303,5.5 C0.781219696,5.5 0,4.72323656 0,3.75 Z M5.2,13.75 C5.2,14.0582358 5.44170292,14.3 5.74490303,14.3 L14.255097,14.3 C14.5518911,14.3 14.8,14.0517691 14.8,13.75 C14.8,13.4417642 14.5582971,13.2 14.255097,13.2 L5.74490303,13.2 C5.44810886,13.2 5.2,13.4482309 5.2,13.75 Z M4,13.75 C4,12.7835017 4.78735352,12 5.74490303,12 L14.255097,12 C15.2187803,12 16,12.7767634 16,13.75 C16,14.7164983 15.2126465,15.5 14.255097,15.5 L5.74490303,15.5 C4.7812197,15.5 4,14.7232366 4,13.75 Z" id="Combined-Shape"></path>
            </g>
        </g>
    </g>
</svg>

<svg xmlns="http://www.w3.org/2000/svg" viewBox="0 0 16 17">
    <path d="M5.2 8.75c0 .308.242.55.545.55h8.51a.551.551 0 0 0 .545-.55.543.543 0 0 0-.545-.55h-8.51a.551.551 0 0 0-.545.55zm-1.2 0C4 7.784 4.787 7 5.745 7h8.51a1.751 1.751 0 0 1 0 3.5h-8.51A1.743 1.743 0 0 1 4 8.75zm-2.8-5c0 .308.242.55.545.55h8.51a.551.551 0 0 0 .545-.55.543.543 0 0 0-.545-.55h-8.51a.551.551 0 0 0-.545.55zm-1.2 0C0 2.784.787 2 1.745 2h8.51a1.751 1.751 0 0 1 0 3.5h-8.51A1.743 1.743 0 0 1 0 3.75zm5.2 10c0 .308.242.55.545.55h8.51a.551.551 0 0 0 .545-.55.543.543 0 0 0-.545-.55h-8.51a.551.551 0 0 0-.545.55zm-1.2 0c0-.966.787-1.75 1.745-1.75h8.51a1.751 1.751 0 0 1 0 3.5h-8.51A1.743 1.743 0 0 1 4 13.75z"/>
</svg>
